X:1
T:[ID 1-20]
T:[ID 1-20]
T:Bezeichnung standardisiert: Menuett Men\"uet
T:Urheber unbekannt Datum in der hier transkribierten schriftlichen Quelle: vermutlich vor 1767
C:Urheber unbekannt
C:Datum in der hier transkribierten schriftlichen Quelle: vermutlich vor 1767
L:1/8
M:3/4
K:D
V:1 treble 
V:1
 F2 D2 AG | F4 E2 | defcde | d4 d2 | fgfedc | B4 g2 | B2 e2 c2 | d6 :: c2 cdef | A4 A2 | d2 defg | %11
 B4 B2 | e2 e>ee>e | aece A2 | e2 e>ee>e | aece A2 | a2 A2 ^G2 | A4 A2 | F2 FGAB | D4 D2 | %20
 G2 GABc | E4 E2 | f2 edcB | e2 dcBA | Bc d2 c2 | d6 :| %26

